src/assets/duotone/TextalignLeft.svg

<?xml version="1.0" encoding="UTF-8"?>
<svg width="24" height="24" viewBox="0 0 24 24" xmlns="http://www.w3.org/2000/svg">
 <path d="m21 5.25h-18c-0.41 0-0.75-0.34-0.75-0.75s0.34-0.75 0.75-0.75h18c0.41 0 0.75 0.34 0.75 0.75s-0.34 0.75-0.75 0.75z"/>
 <path d="m12.47 10.25h-9.47c-0.41 0-0.75-0.34-0.75-0.75s0.34-0.75 0.75-0.75h9.47c0.41 0 0.75 0.34 0.75 0.75s-0.33 0.75-0.75 0.75z" opacity=".4"/>
 <path d="m21 15.25h-18c-0.41 0-0.75-0.34-0.75-0.75s0.34-0.75 0.75-0.75h18c0.41 0 0.75 0.34 0.75 0.75s-0.34 0.75-0.75 0.75z"/>
 <path d="m12.47 20.25h-9.47c-0.41 0-0.75-0.34-0.75-0.75s0.34-0.75 0.75-0.75h9.47c0.41 0 0.75 0.34 0.75 0.75s-0.33 0.75-0.75 0.75z" opacity=".4"/>
</svg>

<svg width="24" height="24" viewBox="0 0 24 24"  xmlns="http://www.w3.org/2000/svg">
<path d="M21 5.25H3C2.59 5.25 2.25 4.91 2.25 4.5C2.25 4.09 2.59 3.75 3 3.75H21C21.41 3.75 21.75 4.09 21.75 4.5C21.75 4.91 21.41 5.25 21 5.25Z" />
<path opacity="0.4" d="M12.47 10.25H3C2.59 10.25 2.25 9.91 2.25 9.5C2.25 9.09 2.59 8.75 3 8.75H12.47C12.88 8.75 13.22 9.09 13.22 9.5C13.22 9.91 12.89 10.25 12.47 10.25Z" />
<path d="M21 15.25H3C2.59 15.25 2.25 14.91 2.25 14.5C2.25 14.09 2.59 13.75 3 13.75H21C21.41 13.75 21.75 14.09 21.75 14.5C21.75 14.91 21.41 15.25 21 15.25Z" />
<path opacity="0.4" d="M12.47 20.25H3C2.59 20.25 2.25 19.91 2.25 19.5C2.25 19.09 2.59 18.75 3 18.75H12.47C12.88 18.75 13.22 19.09 13.22 19.5C13.22 19.91 12.89 20.25 12.47 20.25Z" />
</svg>
